web/workspace/public/assets/icons/grid-list.svg

<svg height="30" viewBox="0 0 30 30" width="30" xmlns="http://www.w3.org/2000/svg"><path d="m2 14h12v-12h-12zm2-10h8v8h-8zm-2 24h12v-12h-12zm2-10h8v8h-8zm12-16v2h12v-2zm0 10h12v-2h-12zm0 8h12v-2h-12zm0 8h12v-2h-12z"/></svg>

<svg xmlns="http://www.w3.org/2000/svg" width="30" height="30" viewBox="0 0 30 30"><path d="M2 14h12V2H2v12zM4 4h8v8H4V4zM2 28h12V16H2v12zm2-10h8v8H4v-8zM16 2v2h12V2H16zm0 10h12v-2H16v2zm0 8h12v-2H16v2zm0 8h12v-2H16v2z"/></svg>
